!!!COM: Robert Schumann
!!!CNT: Deutscher
!!!TXO: Deutsche 
!!!OTL: In der Fremde
!!!OPR: Liederkreis
!!!OPS: Opus 39
!!!ONM: No. 8
!!!LYR: Eichendorff
!!!ENC: Brian Bice
!!!YOR: Sa2mtliche Lieder, vol. 1, C.F. Peters
!!!ODT: 1840/
!!NB: Vocal melody and text only encoded.
**kern	**silbe
*clefG2	*
*k[]	*
*M2/4	*
=1	=1
4r	.
8r	.
16r	.
{16ee	{Ich
=2	=2
8.ee	ho2r'
16a	die
8a	Ba2ch-
8b	-lein
=3	=3
8cc	rau-
8c}	-schen}
8r	.
16r	.
{16b	{im
=4	=4
8.b	Wal-
16e	-de
8e	her
8f#	und
=5	=5
8g}	hin,}
8r	.
8r	.
16r	.
{16ee	{im
=6	=6
8.ee	Wal-
16a	-de
8a	in
8b	dem
=7	=7
8cc	Rau-
8cc}	-schen}
8r	.
16r	.
{16b	{ich
=8	=8
8b	weiss
4e	nicht,
16e	wo
16f#	ich
=9	=9
4g}	bin.}
8r	.
16r	.
{16g	{Die
=10	=10
8.g	Nach-
16g	-ti-
(16g	-gal-
8ee)	|
16dd	-len
=11	=11
8cc#	schla-
8ee}	-gen}
4r	.
=12	=12
{8g	{heir
16g	in
16g	der
8.ee	Ein-
16dd	-sam-
=13	=13
4cc#}	-keit,}
8r	.
16r	.
{16cc#	{als
=14	=14
8.ccn	woll-
16ccn	-ten
8dd	sie
8ccn	was
=15	=15
8b	sa-
8dd}	-gen}
8r	.
{16b	{von
16b	der
=16	=16
8.b	al-
16b	-ten
8.dd	scho2-
16cc	-nen
=17	=17
4b}	Zeit.}
8r	.
16r	.
{16ee	{Die
=18	=18
8.ee	Mon-
16a	-des-
8a	-schim-
8b	-mer
=19	=19
8cc	flie-
8cc}	-gen,}
8r	.
16r	.
{16b	{als
=20	=20
8.b	sa2h
16e	ich
8e	un-
8f#	-ter
=21	=21
8g}	mir}
8r	.
8r	.
16r	.
{16ee	{das
=22	=22
8.ee	Schloss
16a	im
8a	Ta-
8b	-le
=23	=23
8cc	lie-
8cc}	-gen,}
8r	.
16r	.
{16b	{und
=24	=24
8b	ist
16e.	doch
32e	so
8.e	weit
16f#	von
=25	=25
4g}	hier!}
8r	.
16r	.
{16g	{Als
=26	=26
8.g	mu2ss-
16g	-te
(16g	in
8ee)	|
16dd	dem
=27	=27
8cc#	Gar-
8e}	-ten}
8r	.
16r	.
{16g	{voll
=28	=28
8.g	Ro-
16g	-sen
8.ee	weiss
16dd	und
=29	=29
4cc#}	rot,}
8r	.
{16cc#	{mei-
16cc#	-ne
=30	=30
8.ccn	Lieb-
16ccn	-ste
8dd	auf
8ccn	mich
=31	=31
8b	war-
8dd}	-ten,}
8r	.
16r	.
{16b	{und
=32	=32
8b	ist
16b	doch
16b	so
8.dd	lan-
16cc	-ge
=33	=33
4b}	tot,}
8r	.
16r	.
{16ee	{und
=34	=34
8.ee	ist
16a	doch
8cc	lan-
8b	-ge
=35	=35
4.dd}	tot,}
16r	.
{16f	{und
=36	=36
8.ee	ist
16a	doch
8cc	lan-
8b	-ge
=37	=37
4a}	tot.}
4r	.
*-	*-
